build/img/star-red-grey.svg

<svg width="18" height="17" viewBox="0 0 18 17" fill="none" xmlns="http://www.w3.org/2000/svg">
<path d="M8.74375 0L10.6227 5.87336L16.7029 5.87336L11.7839 9.50329L13.6628 15.3766L8.74375 11.7467L3.82472 15.3766L5.70362 9.50329L0.784596 5.87336L6.86485 5.87336L8.74375 0Z" fill="#BDBEC2" fill-opacity="0.7"/>
<path fill-rule="evenodd" clip-rule="evenodd" d="M7.00007 5.45116L6.86492 5.87364L0.784665 5.87364L5.70369 9.50357L3.82479 15.3769L7.00007 13.0338V5.45116Z" fill="#D12136"/>
</svg>

<svg width="18" height="17" fill="none" xmlns="http://www.w3.org/2000/svg"><path d="M8.744 0l1.879 5.873h6.08l-4.92 3.63 1.88 5.874-4.92-3.63-4.918 3.63 1.879-5.874-4.92-3.63h6.08L8.745 0z" fill="#BDBEC2" fill-opacity=".7"/><path fill-rule="evenodd" clip-rule="evenodd" d="M7 5.451l-.135.423H.785l4.919 3.63-1.88 5.873L7 13.034V5.45z" fill="#D12136"/></svg>
